X:1
T:Kyrie
T:Oliver Hayes
T:Missa Bone Pastor Kyrie I
%%score [ 1 2 3 4 ]
L:1/8
Q:1/4=180
M:4/2
K:Bb
V:1 treble nm="Soprano"
V:2 treble nm="Alto"
V:3 treble-8 nm="Tenor"
V:4 bass nm="Bass"
V:1
 z16 | z16 | z16 | z16 | z16 | F8 c4 c4 | d2 e2 f2 d2 c8 | B4 B4 A4 A4 | G8 F2 G2 A2 B2 | %9
w: |||||Ky- ri- e-|lei- * * * son,|Ky- ri- e e-|lei- son, _ _ _|
 c8 B4 F4 | B8 A8 | G8 c8 | B12 A4 | G12 B4 | B16 || z16 | z16 | z16 | z16 | z16 | G8 d6 d2 | %21
w: Ky- ri- e-|lei- *|son, Ky-|* ri-|e- lei-|son.||||||Chri- ste e-|
 e2 f2 g2 e2 d8 | c4 B2 A2 B4 G4 | A8 G8 | c8 B8 | A8 G8 | c8 B8- | B4 c4 d4 B4 | A8 G8 | F16 || %30
w: lei- * * * son,|Chri- * * ste e-|lei- son,|Chri- ste|lei- son,|Chri- *|* * ste e-|lei- *|son.|
[M:3/2] B6 c2 d2 B2 | c4 B4 A4 | B8 G4 | F8 B4- | B4 A4 G4 | F8 F4 | G4 A2 B2 c4 | B12 | c8 d4 | %39
w: Ky- * ri- *|e _ e-|lei- *|son, Ky-|* * ri-|e e-|lei- * * *|son,|Ky- ri-|
 e8 B2 c2 | d6 c2 B4 | G12 | A8 B4 | B6 A2 G4 | F8 B4 | G4 F4 E4 | F12- | F12 |] %48
w: e e- *|lei- * *|son,|Ky- ri-|e _ _|_ e-|lei- * *|son.|_|
[M:4/2]"^(This version may be done instead, as the first may raise eyebrows in a liturgical setting.)" B6 c2 d4 B4 | %49
w: Ky- * * ri-|
 c8 d8- |"^Kyrie II" d4 c4 B8 | c4 B4 A8 | G12 A4 | B6 c2 d4 e4 | f4 e2 d2 c4 e4 | d4 e4 f8- | %56
w: e e-|* * le-|* i- son,|Ky- ri-|e _ _ e-|le- * i- son, e-|le- i- son.|
 f8 c8 | e4 d4 c4 B4 | d4 c4 B4 A4 | c4 B4 A4 G4 | B8 A8 | G8 c8 | B12 B4 | c4 B4 A8 | %64
w: _ Chri-|ste _ _ e-|le- * * *|i- * * *|son, Chri-|ste e-|le- i-|son. _ _|
 c4 d2 e2 f8- | f8 e8 | d4 c2 d2 e4 e4 | d4 c4 B8 | c4 d2 e2 f4 e4- | e4 d4 c4 G4 | F4 G4 A8 | %71
w: Ky- ri- * e|_ e-|le- i- * son, e-|le- i- son,|Ky- * * ri- e|_ _ _ e-|le- * i-|
 B16 |] %72
w: son.|
V:2
 z16 | z16 | z16 | z8 B,8 | F4 F4 G2 A2 B2 G2 | F8 E4 E4 | F4 D4 E4 C4 | B,8 C8 | E8 D8 | G8 F8 | %10
w: |||Ky-|ri- e- lei- * * *|son, Ky- ri-|e e- lei- *|son, e-|lei- son,|Ky- ri-|
 F16 | D8 C8 | G8 F8 | C8 E8 | D16 || z16 | z16 | z16 | z8 C8 | G6 G2 A2 B2 c2 A2 | %20
w: e-|lei- son,|Ky- ri-|e- lei-|son.||||Chri-|ste e- lei- * * *|
 B2 A2 G4 F4 A2 G2 | E8 D4 E4 | F8 G8 | F4 E4 D8 | E8 D8 | F8 D4 E4 | F8 G8 | F2 G2 A4 F8- | %28
w: * * * son, e- *|lei- son, _|Chri- *|ste _ e-|lei- son,|Chri- ste e-|lei- son,|Chri- * * ste|
 F4 F4 E8 | C16 ||[M:3/2] D8 F4 | F8 F4 | D8 E4 | C8 D4 | E12 | D12 | C12 | B,8 F2 G2 | A4 G4 F4 | %39
w: _ e- lei-|son.|Ky- ri-|e e-|lei- *|son, e-|lei-|||son, Ky- *|* * ri-|
 G4 F4 E4 | F8 D4 | E12 | F8 E4 | F4 G4 E4 | D12 | C12 | B,12- | B,12 |][M:4/2] F8 F8 | A8 F8 | %50
w: e _ e-|lei- *|son,|Ky- ri-|e _ e-|lei-||son.|_|Ky- ri-|e e-|
 D4 F4 D8 | C8 F4 C4 | E8 E8 | D8 D8 | C8 C8 | B,16 | A,8 A8 | B8 G8 | A8 F8 | G8 F4 E4 | F16 | %61
w: le- * *|i- son, _|Ky- ri-|e e-|le- i-|son.|Chri- *|ste e-|le- i-|son, _ _|Chri-|
 E8 E8 | D8 D8 | C16 | A16 | A8 B4 G4 | F6 F2 G4 G4 | F4 E4 D8 | F8 F8 | E4 F4 G4 E4 | D8 C8 | %71
w: ste e-|le- i-|son.|Ky-|ri- e e-|le- i- son, e-|le- i- son,|Ky- ri-|e _ _ e-|le- i-|
 B,16 |] %72
w: son.|
V:3
 z16 | z8 F8 | c4 c4 d2 e2 f2 d2 | c8 d4 B4 | A4 A4 G8 | B8 G8 | A8 G8 | F12 F4 | G4 A4 B8 | %9
w: |Ky-|ri- e- lei- * * *|son, Ky- ri-|e e- lei-|son, e-|lei- son,|Ky- ri-|e _ e-|
 c8 d8 | d8 c8 | B8 A8 | B4 c4 d8 | e2 d2 c2 B2 G4 E4 | F16 || z16 | z8 G8 | d6 d2 e2 f2 g2 e2 | %18
w: lei- son,|Ky- ri-|e e-|lei- * *||son.||Chri-|ste e- lei- * * *|
 d8 e4 c4 | B8 c4 A4 | G8 A2 G2 F4 | G8 B8 | A8 G8 | A8 B8 | G4 A4 B8 | A8 B8 | A4 A4 B4 c4 | %27
w: son, Chri- *|ste e- *|lei- son, _ _|Chri- *|ste e-|lei- son,|Chri- * ste|e- *|lei- son, Chri- *|
 d4 f4 d8 | c12 B4 | A16 ||[M:3/2] F8 B4 | A4 B4 c4 | B4 A4 G4 | A8 F4 | G6 A2 B2 c2 | d8 f4 | %36
w: * ste e-|lei- *|son.|Ky- ri-|e _ e-|lei- * *|son, e-|lei- * * *|son, e-|
 e4 d4 c4 | d12 | c8 B4 | B8 G4 | B2 c2 d2 e2 f4 | c12 | c8 B4 | d8 c4 | B4 A2 G2 F4 | G8 B4 | %46
w: lei- * *|son,|Ky- ri-|e e-|lei- * * * *|son,|Ky- ri-|e e-|lei- * * *|son, e-|
 c12 | d12 |][M:4/2] d8 B4 d4 | c4 B4 A8 | B4 A4 G8 | A4 B4 c8 | c8 c8 | B4 A4 G8 | c8 f8- | %55
w: lei-|son.|Ky- ri- e|e- * le-|* i- son,|Ky- * ri-|e e-|le- i- son,|e- le-|
 f4 e4 d8 | c4 d2 e2 f8 | g8 c2 d2 e4 | f8 B2 c2 d4 | e8 A2 B2 c4 | d8 c4 d4 | e4 f4 g8- | g8 f8 | %63
w: * i- son.|Chri- * * ste|e- le- * *|* i- * *|* son, _ _|_ Chri- *|ste e- le-|* i-|
 f8 f8- | f4 f2 e2 d4 c4- | c8 B8- | B4 F4 c4 c4 | d4 e4 f8 | A8 c8 | B8 c4 B4 | B8 c2 d2 e4 | %71
w: son. Ky-|* ri- * e e-|* le-|* i- son, e-|le- i- son,|Ky- ri-|e e- *|le- i- * *|
 d16 |] %72
w: son.|
V:4
 B,,8 F,4 F,4 | G,2 A,2 B,2 G,2 F,8 | E,6 E,2 D,4 B,,4 | C,8 B,,8 | F,8 E,8 | D,8 C,8 | F,8 E,8 | %7
w: Ky- ri- e-|lei- * * * son,|Ky- ri- e e-|lei- son,|Ky- ri-|e e-|lei- *|
 D,8 C,8 | E,8 B,,8 | E,4 D,2 C,2 B,,8 | B,,4 B,,4 F,6 F,2 | G,2 A,2 B,2 G,2 F,8 | %12
w: * son,|e- *|lei- * * son,|Ky- ri- e e-|lei- * * * son,|
 E,6 E,2 D,6 D,2 | C,16 | B,,16 || C,8 G,6 G,2 | A,2 B,2 C2 A,2 G,8 | F,8 E,4 C,4 | D,4 B,,4 C,8 | %19
w: Ky- ri- e e-|lei-|son.|Chri- ste e-|lei- * * * son,|Chri- ste e-|lei- * son,|
 G,4 G,2 G,2 F,8 | E,4 E,4 D,8 | C,8 G,8 | F,8 E,8 | D,8 G,2 F,2 E,2 D,2 | C,8 G,6 G,2 | %25
w: Chri- ste e- lei-|son, e- lei-|son, e-|lei- *|son, _ _ _ _|Chri- ste e-|
 A,2 B,2 C2 A,2 G,8 | F,8 E,8 | D,4 C,4 B,,8 | F,8 C,4 E,4 | F,16 ||[M:3/2] B,,8 B,,4 | F,8 F,4 | %32
w: lei- * * * son,|Chri- *|ste _ e-|lei- * *|son.|Ky- ri-|e e-|
 G,6 A,2 B,2 G,2 | F,8 B,,4 | E,4 G,4 E,4 | B,8 B,,4 | C,8 E,4 | G,4 A,4 B,4 | F,8 F,4 | E,8 E,4 | %40
w: lei- * * *|son, e-|lei- * *|son, e-|lei- *|son, _ _|Ky- ri-|e e-|
 D,4 B,,4 D,4 | C,4 D,4 E,4 | F,8 G,2 A,2 | B,2 A,2 G,2 F,2 E,4 | B,,8 D,4 | E,12 | B,,12- | %47
w: lei- * *|son, _ e-|lei- * *||son, e-|lei-|son.|
 B,,12 |][M:4/2] B,,8 B,,8 | F,8 F,8 | G,4 A,4 B,4 G,4 | F,16 | C,4 D,4 E,4 F,4 | G,4 A,4 B,8 | %54
w: _|Ky- ri-|e e-|le- * * i-|son,|Ky- * * *|ri- e e-|
 F,4 G,4 A,8 | B,16 | F,16 | E,8 E,8 | D,8 D,8 | C,16 | B,,2 C,2 D,2 E,2 F,2 G,2 A,2 B,2 | %61
w: le- * *|son.|Chri-|ste e-|le- i-|son,|Chri- * * * * * * *|
 C8 C,2 D,2 E,2 F,2 | G,4 A,4 B,8 | A,4 G,4 F,8 | F,8 F,8 | E,4 F,4 G,4 E,4 | D,8 C,8 | B,,16 | %68
w: ste e- * * *||le- i- son.|Ky- ri-|e _ _ e-|le- i-|son,|
 F,8 A,8 | G,4 F,4 E,4 E,4 | B,,8 F,8 | B,,16 |] %72
w: Ky- ri-|e _ _ e-|le- i-|son.|

